;FLAVOR:Marlin
;TIME:4001
;Filament used: 2.56208m
;Layer height: 0.2
;MINX:127.403
;MINY:77.696
;MINZ:0.2
;MAXX:194.966
;MAXY:157.304
;MAXZ:9
;Generated with Cura_SteamEngine 4.5.0
M82 ;absolute extrusion mode
M201 X500.00 Y500.00 Z100.00 E5000.00 ;Setup machine max acceleration
M203 X500.00 Y500.00 Z10.00 E50.00 ;Setup machine max feedrate
M204 P500.00 R1000.00 T500.00 ;Setup Print/Retract/Travel acceleration
M205 X8.00 Y8.00 Z0.40 E5.00 ;Setup Jerk
M220 S100 ;Reset Feedrate
M221 S100 ;Reset Flowrate

;*** Start Preheating ***
M140 S60 ; start preheating the bed
M104 S230 ﻿T0 ; start preheating hotend
G28 ; home
M190 S60 ; heat to Cura Bed setting
M109 S230 ﻿T0 ; heat to Cura Hotend
;*** End Preheating ***

G92 E0 ;Reset Extruder
G1 Z2.0 F3000 ;Move Z Axis up
G1 X10.1 Y20 Z0.28 F5000.0 ;Move to start position
G1 X10.1 Y200.0 Z0.28 F1500.0 E15 ;Draw the first line
G1 X10.4 Y200.0 Z0.28 F5000.0 ;Move to side a little
G1 X10.4 Y20 Z0.28 F1500.0 E30 ;Draw the second line
G92 E0 ;Reset Extruder
G1 Z2.0 F3000 ;Move Z Axis up
G92 E0
G92 E0
G1 F3600 E-6
;LAYER_COUNT:45
;LAYER:0
M107
G0 F6000 X129.399 Y82.399 Z0.2
;TYPE:SKIRT
G1 F1200 E0
G1 X129.969 Y81.654 E0.0312
G1 X130.601 Y80.96 E0.06242
G1 X131.289 Y80.323 E0.0936
G1 X132.029 Y79.747 E0.12479
G1 X132.815 Y79.235 E0.15599
G1 X133.642 Y78.793 E0.18718
G1 X134.504 Y78.423 E0.21838
G1 X135.394 Y78.127 E0.24958
G1 X136.306 Y77.909 E0.28077
G1 X137.233 Y77.768 E0.31195
G1 X138.104 Y77.709 E0.34099
G1 X138.733 Y77.696 E0.36191
G1 X183.417 Y77.697 E1.84811
G1 X184.115 Y77.707 E1.87133
G1 X185.051 Y77.761 E1.90251
G1 X185.979 Y77.893 E1.93369
G1 X186.893 Y78.105 E1.96489
G1 X187.785 Y78.394 E1.99608
G1 X188.65 Y78.757 E2.02728
G1 X189.48 Y79.193 E2.05846
G1 X190.271 Y79.698 E2.08968
G1 X191.015 Y80.269 E2.12087
G1 X191.708 Y80.901 E2.15206
G1 X192.345 Y81.589 E2.18325
G1 X192.92 Y82.33 E2.21444
G1 X193.431 Y83.116 E2.24563
G1 X193.873 Y83.944 E2.27684
G1 X194.242 Y84.806 E2.30803
G1 X194.537 Y85.696 E2.33922
G1 X194.755 Y86.608 E2.3704
G1 X194.895 Y87.536 E2.40162
G1 X194.953 Y88.397 E2.43032
G1 X194.966 Y89.026 E2.45125
G1 X194.966 Y145.568 E4.33184
G1 X194.956 Y146.431 E4.36055
G1 X194.905 Y147.368 E4.39176
G1 X194.773 Y148.296 E4.42293
G1 X194.564 Y149.21 E4.45412
G1 X194.277 Y150.103 E4.48531
G1 X193.915 Y150.969 E4.51653
G1 X193.481 Y151.8 E4.54771
G1 X192.977 Y152.591 E4.57891
G1 X192.408 Y153.336 E4.61009
G1 X191.777 Y154.031 E4.64131
G1 X191.09 Y154.669 E4.67249
G1 X190.351 Y155.246 E4.70368
G1 X189.565 Y155.758 E4.73488
G1 X188.739 Y156.201 E4.76605
G1 X187.877 Y156.573 E4.79728
G1 X186.988 Y156.869 E4.82844
G1 X186.076 Y157.089 E4.85965
G1 X185.149 Y157.23 E4.89083
G1 X184.265 Y157.291 E4.9203
G1 X183.636 Y157.304 E4.94123
G1 X138.968 Y157.303 E6.42689
G1 X138.27 Y157.294 E6.45011
G1 X137.334 Y157.242 E6.48129
G1 X136.405 Y157.11 E6.5125
G1 X135.491 Y156.9 E6.54369
G1 X134.598 Y156.613 E6.57489
G1 X133.733 Y156.25 E6.60609
G1 X132.902 Y155.816 E6.63727
G1 X132.111 Y155.312 E6.66847
G1 X131.366 Y154.742 E6.69967
G1 X130.672 Y154.111 E6.73086
G1 X130.035 Y153.424 E6.76202
G1 X129.458 Y152.684 E6.79323
G1 X128.946 Y151.898 E6.82443
G1 X128.503 Y151.071 E6.85564
G1 X128.132 Y150.21 E6.88682
G1 X127.836 Y149.32 E6.91802
G1 X127.617 Y148.408 E6.94921
G1 X127.476 Y147.481 E6.9804
G1 X127.416 Y146.592 E7.01003
G1 X127.403 Y145.962 E7.03099
G1 X127.403 Y89.37 E8.91325
G1 X127.413 Y88.556 E8.94033
G1 X127.466 Y87.62 E8.97151
G1 X127.598 Y86.691 E9.00272
G1 X127.809 Y85.777 E9.03391
G1 X128.097 Y84.885 E9.06509
G1 X128.46 Y84.02 E9.09629
G1 X128.895 Y83.189 E9.12749
G1 X128.969 Y83.073 E9.13206
G0 F1080 X129.399 Y82.399
G0 F6000 X129.795 Y82.531
G1 F1200 X130.364 Y81.807 E9.16269
G1 X130.992 Y81.135 E9.19328
G1 X131.677 Y80.519 E9.22392
G1 X132.413 Y79.966 E9.25454
G1 X133.194 Y79.478 E9.28517
G1 X134.014 Y79.06 E9.31579
G1 X134.868 Y78.715 E9.34642
G1 X135.748 Y78.445 E9.37704
G1 X136.648 Y78.253 E9.40764
G1 X137.562 Y78.139 E9.43828
G1 X138.115 Y78.109 E9.4567
G1 X138.733 Y78.096 E9.47726
G1 X183.411 Y78.097 E10.96325
G1 X184.109 Y78.107 E10.98647
G1 X185.028 Y78.16 E11.01709
G1 X185.939 Y78.293 E11.04771
G1 X186.835 Y78.504 E11.07833
G1 X187.709 Y78.792 E11.10893
G1 X188.556 Y79.155 E11.13958
G1 X189.367 Y79.59 E11.17019
G1 X190.137 Y80.094 E11.2008
G1 X190.861 Y80.663 E11.23143
G1 X191.533 Y81.293 E11.26206
G1 X192.148 Y81.978 E11.29268
G1 X192.701 Y82.714 E11.3233
G1 X193.188 Y83.495 E11.35391
G1 X193.605 Y84.316 E11.38454
G1 X193.95 Y85.17 E11.41518
G1 X194.219 Y86.05 E11.44578
G1 X194.411 Y86.951 E11.47642
G1 X194.524 Y87.864 E11.50702
G1 X194.553 Y88.408 E11.52514
G1 X194.566 Y89.026 E11.5457
G1 X194.566 Y145.568 E13.42629
G1 X194.556 Y146.426 E13.45483
G1 X194.505 Y147.345 E13.48545
G1 X194.374 Y148.257 E13.51609
G1 X194.164 Y149.153 E13.5467
G1 X193.878 Y150.028 E13.57732
G1 X193.517 Y150.875 E13.60794
G1 X193.083 Y151.687 E13.63856
G1 X192.581 Y152.459 E13.66919
G1 X192.013 Y153.184 E13.69982
G1 X191.385 Y153.857 E13.73044
G1 X190.701 Y154.473 E13.76106
G1 X189.966 Y155.027 E13.79167
G1 X189.186 Y155.516 E13.82229
G1 X188.366 Y155.935 E13.85292
G1 X187.513 Y156.281 E13.88353
G1 X186.633 Y156.552 E13.91416
G1 X185.733 Y156.745 E13.94477
G1 X184.819 Y156.86 E13.97541
G1 X184.254 Y156.891 E13.99423
G1 X183.636 Y156.904 E14.01479
G1 X138.973 Y156.903 E15.50029
G1 X138.275 Y156.894 E15.52351
G1 X137.356 Y156.842 E15.55412
G1 X136.445 Y156.711 E15.58473
G1 X135.549 Y156.501 E15.61534
G1 X134.674 Y156.214 E15.64597
G1 X133.827 Y155.852 E15.67661
G1 X133.015 Y155.418 E15.70723
G1 X132.244 Y154.916 E15.73783
G1 X131.519 Y154.348 E15.76846
G1 X130.846 Y153.719 E15.7991
G1 X130.231 Y153.035 E15.82969
G1 X129.677 Y152.3 E15.86031
G1 X129.189 Y151.519 E15.89094
G1 X128.77 Y150.699 E15.92156
G1 X128.424 Y149.846 E15.95218
G1 X128.154 Y148.966 E15.98279
G1 X127.961 Y148.065 E16.01344
G1 X127.847 Y147.152 E16.04404
G1 X127.816 Y146.581 E16.06306
G1 X127.803 Y145.962 E16.08366
G1 X127.803 Y89.37 E17.96591
G1 X127.813 Y88.562 E17.99279
G1 X127.865 Y87.642 E18.02344
G1 X127.997 Y86.731 E18.05405
G1 X128.208 Y85.835 E18.08467
G1 X128.495 Y84.96 E18.1153
G1 X128.858 Y84.114 E18.14592
G1 X129.292 Y83.302 E18.17654
G1 X129.358 Y83.201 E18.18055
G0 F1080 X129.795 Y82.531
G0 F6000 X130.191 Y82.667
G1 F1200 X130.758 Y81.963 E18.21062
G1 X131.384 Y81.313 E18.24063
G1 X132.065 Y80.72 E18.27067
G1 X132.797 Y80.19 E18.30073
G1 X133.572 Y79.727 E18.33075
G1 X134.385 Y79.334 E18.36079
G1 X135.23 Y79.014 E18.39084
G1 X136.099 Y78.771 E18.42085
G1 X136.987 Y78.605 E18.4509
G1 X138.126 Y78.509 E18.48891
G1 X138.733 Y78.496 E18.50911
G1 X183.405 Y78.497 E19.99491
G1 X184.103 Y78.507 E20.01812
G1 X185.005 Y78.56 E20.04818
G1 X185.898 Y78.692 E20.0782
G1 X186.776 Y78.903 E20.10823
G1 X187.632 Y79.191 E20.13827
G1 X188.459 Y79.553 E20.1683
G1 X189.251 Y79.988 E20.19835
G1 X190.002 Y80.49 E20.2284
G1 X190.705 Y81.057 E20.25844
G1 X191.355 Y81.684 E20.28847
G1 X191.947 Y82.366 E20.31851
G1 X192.477 Y83.097 E20.34854
G1 X192.939 Y83.873 E20.37858
G1 X193.332 Y84.686 E20.40861
G1 X193.65 Y85.531 E20.43864
G1 X193.893 Y86.401 E20.46869
G1 X194.058 Y87.289 E20.49873
G1 X194.153 Y88.419 E20.53644
G1 X194.166 Y89.026 E20.55664
G1 X194.166 Y145.568 E22.43723
G1 X194.156 Y146.421 E22.46561
G1 X194.105 Y147.323 E22.49565
G1 X193.974 Y148.217 E22.52571
G1 X193.765 Y149.095 E22.55572
G1 X193.479 Y149.952 E22.58577
G1 X193.118 Y150.78 E22.61582
G1 X192.686 Y151.572 E22.64582
G1 X192.185 Y152.324 E22.67588
G1 X191.619 Y153.028 E22.70592
G1 X190.994 Y153.679 E22.73594
G1 X190.313 Y154.273 E22.76599
G1 X189.582 Y154.804 E22.79604
G1 X188.808 Y155.268 E22.82606
G1 X187.995 Y155.662 E22.85611
G1 X187.151 Y155.982 E22.88613
G1 X186.281 Y156.227 E22.91619
G1 X185.394 Y156.393 E22.9462
G1 X184.243 Y156.491 E22.98462
G1 X183.636 Y156.504 E23.00482
G1 X138.978 Y156.503 E24.49015
G1 X138.28 Y156.494 E24.51337
G1 X137.379 Y156.443 E24.54338
G1 X136.485 Y156.311 E24.57344
G1 X135.607 Y156.102 E24.60346
G1 X134.75 Y155.815 E24.63352
G1 X133.923 Y155.454 E24.66353
G1 X133.13 Y155.021 E24.69358
G1 X132.379 Y154.52 E24.72361
G1 X131.675 Y153.954 E24.75365
G1 X131.024 Y153.328 E24.78369
G1 X130.431 Y152.647 E24.81372
G1 X129.901 Y151.916 E24.84376
G1 X129.437 Y151.141 E24.8738
G1 X129.043 Y150.328 E24.90385
G1 X128.723 Y149.484 E24.93387
G1 X128.479 Y148.614 E24.96392
G1 X128.313 Y147.726 E24.99397
G1 X128.216 Y146.571 E25.03252
G1 X128.203 Y145.962 E25.05278
G1 X128.203 Y89.37 E26.93504
G1 X128.213 Y88.567 E26.96175
G1 X128.265 Y87.665 E26.9918
G1 X128.397 Y86.772 E27.02182
G1 X128.607 Y85.894 E27.05185
G1 X128.894 Y85.037 E27.08191
G1 X129.256 Y84.21 E27.11193
G1 X129.689 Y83.418 E27.14195
G1 X129.747 Y83.332 E27.1454
G0 F1080 X130.191 Y82.667
G1 F3600 E21.1454
;MESH:Thermal_Camera_ESP32_MLX90640_ver_1-1_Enclousure_Body.stl
G0 F6000 X137.738 Y89.11
G0 X138.817 Y89.11
G0 X148.027 Y112.206
;TYPE:WALL-INNER
G1 F1200 E27.1454
G1 X147.915 Y112.477 E27.15516
G1 X147.868 Y112.621 E27.1602
G1 X147.804 Y112.728 E27.16434
G1 X147.789 Y112.926 E27.17095
G1 X147.694 Y113.23 E27.18154
G1 X147.692 Y113.329 E27.18483
G1 X147.618 Y113.483 E27.19052
G1 X147.616 Y114.941 E27.23901
G1 X147.66 Y115.283 E27.25048
G1 X147.689 Y115.379 E27.25381
G1 X147.693 Y115.449 E27.25615
G1 X147.774 Y115.734 E27.266
G1 X147.82 Y116.041 E27.27633
G1 X147.875 Y116.128 E27.27975
G1 X147.902 Y116.276 E27.28475
G1 X148 Y116.428 E27.29077
G1 X148.003 Y116.493 E27.29293
G1 X148.154 Y116.736 E27.30245
G1 X148.203 Y116.83 E27.30597
G1 X148.204 Y116.986 E27.31116
G1 X148.554 Y117.401 E27.32922
G1 X148.612 Y117.522 E27.33368
G1 X148.881 Y117.934 E27.35005
G1 X149.017 Y118.005 E27.35515
G1 X149.028 Y118.017 E27.35569
G1 X149.105 Y118.117 E27.35989
G1 X149.468 Y118.482 E27.37701
G1 X149.663 Y118.589 E27.38441
G1 X150.044 Y118.977 E27.40249
G1 X150.169 Y118.986 E27.40666
G1 X150.39 Y119.175 E27.41633
G1 X150.556 Y119.221 E27.42206
G1 X150.763 Y119.325 E27.42977
G1 X151.006 Y119.425 E27.43851
G1 X151.29 Y119.568 E27.44908
G1 X151.397 Y119.573 E27.45265
G1 X151.569 Y119.648 E27.45889
G1 X151.744 Y119.657 E27.46472
G1 X151.85 Y119.725 E27.4689
G1 X152.134 Y119.775 E27.4785
G1 X152.358 Y119.838 E27.48624
G1 X152.514 Y119.844 E27.49143
G1 X152.883 Y119.908 E27.50388
G1 X153.459 Y119.942 E27.52308
G1 X154.081 Y119.94 E27.54376
G1 X154.172 Y119.918 E27.54688
G1 X154.262 Y119.918 E27.54987
G1 X154.438 Y119.874 E27.5559
G1 X154.584 Y119.852 E27.56081
G1 X154.621 Y119.846 E27.56206
G1 X154.717 Y119.846 E27.56525
G1 X155.167 Y119.729 E27.58072
G1 X155.374 Y119.656 E27.58802
G1 X155.475 Y119.62 E27.59159
G1 X155.682 Y119.53 E27.59909
G1 X155.825 Y119.483 E27.6041
G1 X155.962 Y119.415 E27.60919
G1 X156.135 Y119.358 E27.61525
G1 X156.233 Y119.277 E27.61947
G1 X156.445 Y119.169 E27.62739
G1 X156.665 Y119.035 E27.63596
G1 X156.711 Y118.993 E27.63803
G1 X156.918 Y118.862 E27.64617
G1 X156.958 Y118.822 E27.64806
G1 X157.046 Y118.774 E27.65139
G1 X157.407 Y118.439 E27.66777
G1 X157.873 Y117.965 E27.68988
G1 X157.977 Y117.822 E27.69576
G1 X158.203 Y117.541 E27.70775
G1 X158.241 Y117.482 E27.71009
G1 X158.336 Y117.369 E27.715
G1 X158.379 Y117.264 E27.71877
G1 X158.528 Y117.014 E27.72845
G1 X158.557 Y116.941 E27.73106
G1 X158.626 Y116.846 E27.73497
G1 X158.689 Y116.679 E27.74091
G1 X158.722 Y116.615 E27.7433
G1 X158.861 Y116.295 E27.7549
G1 X158.914 Y116.143 E27.76026
G1 X158.977 Y115.908 E27.76835
G1 X159.015 Y115.81 E27.77185
G1 X159.062 Y115.655 E27.77723
G1 X159.069 Y115.635 E27.77794
G1 X159.073 Y115.609 E27.77881
G1 X159.123 Y115.338 E27.78798
G1 X159.145 Y115.22 E27.79197
G1 X159.183 Y115.068 E27.79718
G1 X159.196 Y114.778 E27.80684
G1 X159.235 Y114.65 E27.81129
G1 X159.235 Y113.946 E27.8347
G1 X159.208 Y113.759 E27.84099
G1 X159.208 Y113.52 E27.84894
G1 X159.186 Y113.474 E27.85063
G1 X159.186 Y113.445 E27.8516
G1 X159.147 Y113.281 E27.8572
G1 X159.118 Y113.106 E27.8631
G1 X159.092 Y113.022 E27.86603
G1 X159.092 Y112.942 E27.86869
G1 X159.016 Y112.633 E27.87927
G1 X158.962 Y112.519 E27.88347
G1 X158.816 Y112.056 E27.89962
G1 X158.754 Y111.928 E27.90435
G1 X158.594 Y111.58 E27.91709
G1 X158.46 Y111.32 E27.92681
G1 X158.416 Y111.274 E27.92893
G1 X158.378 Y111.216 E27.93124
G1 X158.291 Y111.037 E27.93786
G1 X158.209 Y110.944 E27.94198
G1 X158.066 Y110.75 E27.95
G1 X158.043 Y110.728 E27.95106
G1 X157.957 Y110.596 E27.95629
G1 X157.713 Y110.348 E27.96787
G1 X157.51 Y110.085 E27.97892
G1 X157.245 Y109.882 E27.99002
G1 X157.062 Y109.721 E27.99813
G1 X156.836 Y109.552 E28.00751
G1 X156.666 Y109.444 E28.01421
G1 X156.505 Y109.326 E28.02085
G1 X156.262 Y109.202 E28.02992
G1 X156.196 Y109.157 E28.03258
G1 X155.935 Y109.025 E28.04231
G1 X155.914 Y109.018 E28.04304
G1 X155.582 Y108.892 E28.05486
G1 X155.459 Y108.829 E28.05945
G1 X155.416 Y108.806 E28.06107
G1 X155.238 Y108.762 E28.06717
G1 X155.176 Y108.729 E28.06951
G1 X155.117 Y108.718 E28.0715
G1 X154.966 Y108.687 E28.07663
G1 X154.873 Y108.657 E28.07988
G1 X154.548 Y108.598 E28.09087
G1 X154.403 Y108.577 E28.09574
G1 X154.388 Y108.571 E28.09628
G1 X154.311 Y108.536 E28.09909
G1 X154.013 Y108.534 E28.109
G1 X153.941 Y108.51 E28.11153
G1 X153.316 Y108.51 E28.13232
G1 X153.09 Y108.534 E28.13987
G1 X152.825 Y108.534 E28.14869
G1 X152.656 Y108.6 E28.15472
G1 X152.44 Y108.624 E28.16195
G1 X152.306 Y108.67 E28.16666
G1 X151.768 Y108.806 E28.18512
G1 X151.636 Y108.873 E28.19004
G1 X151.193 Y109.034 E28.20572
G1 X151.019 Y109.139 E28.21248
G1 X150.628 Y109.338 E28.22707
G1 X150.543 Y109.414 E28.23086
G1 X150.367 Y109.505 E28.23745
G1 X150.303 Y109.574 E28.24058
G1 X150.241 Y109.611 E28.24299
G1 X150.109 Y109.725 E28.24879
G1 X150.062 Y109.765 E28.25084
G1 X149.803 Y109.964 E28.2617
G1 X149.666 Y110.101 E28.26815
G1 X149.578 Y110.156 E28.2716
G1 X149.318 Y110.405 E28.28357
G1 X149.194 Y110.508 E28.28893
G1 X149.082 Y110.62 E28.2942
G1 X148.961 Y110.766 E28.30051
G1 X148.813 Y110.922 E28.30766
G1 X148.788 Y110.971 E28.30949
G1 X148.712 Y111.023 E28.31255
G1 X148.664 Y111.121 E28.31618
G1 X148.493 Y111.386 E28.32667
G1 X148.387 Y111.493 E28.33168
G1 X148.363 Y111.541 E28.33347
G0 F1080 X148.259 Y111.75
G0 X148.077 Y111.849
G0 X148.05 Y112.048
G0 X148.027 Y112.206
G0 F6000 X148.416 Y112.312
G1 F1200 X148.291 Y112.616 E28.3444
G1 X148.234 Y112.79 E28.35049
G1 X148.196 Y112.853 E28.35294
G1 X148.185 Y113.002 E28.35791
G1 X148.093 Y113.296 E28.36815
G1 X148.09 Y113.423 E28.37238
G1 X148.018 Y113.574 E28.37794
G1 X148.016 Y114.916 E28.42258
G1 X148.052 Y115.198 E28.43203
G1 X148.087 Y115.312 E28.436
G1 X148.09 Y115.381 E28.4383
G1 X148.128 Y115.506 E28.44264
G1 X148.168 Y115.662 E28.448
G1 X148.203 Y115.899 E28.45597
G1 X148.254 Y115.98 E28.45915
G1 X148.267 Y116.055 E28.46168
G1 X148.281 Y116.126 E28.46409
G1 X148.395 Y116.303 E28.47109
G1 X148.398 Y116.371 E28.47335
G1 X148.493 Y116.526 E28.4794
G1 X148.506 Y116.546 E28.48019
G1 X148.602 Y116.73 E28.4871
G1 X148.603 Y116.839 E28.49072
G1 X148.859 Y117.144 E28.50397
G1 X148.892 Y117.183 E28.50567
G1 X148.912 Y117.225 E28.50721
G1 X148.961 Y117.324 E28.51089
G1 X149.159 Y117.628 E28.52295
G1 X149.259 Y117.68 E28.5267
G1 X149.33 Y117.753 E28.53009
G1 X149.407 Y117.853 E28.53429
G1 X149.71 Y118.158 E28.54859
G1 X149.857 Y118.237 E28.55414
G1 X149.923 Y118.283 E28.55681
G1 X150.224 Y118.589 E28.57109
G1 X150.305 Y118.595 E28.57379
G1 X150.378 Y118.639 E28.57662
G1 X150.582 Y118.813 E28.58554
G1 X150.716 Y118.85 E28.59017
G1 X150.74 Y118.866 E28.59113
G1 X150.929 Y118.961 E28.59816
G1 X151.17 Y119.06 E28.60683
G1 X151.395 Y119.173 E28.6152
G1 X151.489 Y119.178 E28.61833
G1 X151.656 Y119.25 E28.62438
G1 X151.778 Y119.253 E28.62844
G1 X151.904 Y119.285 E28.63276
G1 X151.998 Y119.345 E28.63647
G1 X152.222 Y119.384 E28.64403
G1 X152.421 Y119.44 E28.65091
G1 X152.553 Y119.445 E28.6553
G1 X152.927 Y119.51 E28.66793
G1 X153.109 Y119.519 E28.67399
G1 X153.471 Y119.542 E28.68606
G1 X154.033 Y119.54 E28.70475
G1 X154.124 Y119.518 E28.70786
G1 X154.213 Y119.518 E28.71082
G1 X154.361 Y119.481 E28.7159
G1 X154.382 Y119.479 E28.7166
G1 X154.524 Y119.458 E28.72137
G1 X154.573 Y119.446 E28.72305
