;FLAVOR:Marlin
;TIME:17077
;Filament used: 9.79059m
;Layer height: 0.2
;MINX:127.546
;MINY:66.742
;MINZ:0.2
;MAXX:199.176
;MAXY:148.557
;MAXZ:40
;Generated with Cura_SteamEngine 4.5.0
M82 ;absolute extrusion mode
M201 X500.00 Y500.00 Z100.00 E5000.00 ;Setup machine max acceleration
M203 X500.00 Y500.00 Z10.00 E50.00 ;Setup machine max feedrate
M204 P500.00 R1000.00 T500.00 ;Setup Print/Retract/Travel acceleration
M205 X8.00 Y8.00 Z0.40 E5.00 ;Setup Jerk
M220 S100 ;Reset Feedrate
M221 S100 ;Reset Flowrate

;*** Start Preheating ***
M140 S60 ; start preheating the bed
M104 S230 ﻿T0 ; start preheating hotend
G28 ; home
M190 S60 ; heat to Cura Bed setting
M109 S230 ﻿T0 ; heat to Cura Hotend
;*** End Preheating ***

G92 E0 ;Reset Extruder
G1 Z2.0 F3000 ;Move Z Axis up
G1 X10.1 Y20 Z0.28 F5000.0 ;Move to start position
G1 X10.1 Y200.0 Z0.28 F1500.0 E15 ;Draw the first line
G1 X10.4 Y200.0 Z0.28 F5000.0 ;Move to side a little
G1 X10.4 Y20 Z0.28 F1500.0 E30 ;Draw the second line
G92 E0 ;Reset Extruder
G1 Z2.0 F3000 ;Move Z Axis up
G92 E0
G92 E0
G1 F3600 E-6
;LAYER_COUNT:200
;LAYER:0
M107
G0 F6000 X129.182 Y72.08 Z0.2
;TYPE:SKIRT
G1 F1200 E0
G1 X129.7 Y71.298 E0.0312
G1 X130.282 Y70.563 E0.06238
G1 X130.925 Y69.881 E0.09356
G1 X131.624 Y69.255 E0.12476
G1 X132.374 Y68.691 E0.15598
G1 X133.169 Y68.194 E0.18716
G1 X134.003 Y67.765 E0.21835
G1 X134.871 Y67.41 E0.24954
G1 X135.766 Y67.129 E0.28075
G1 X136.681 Y66.926 E0.31192
G1 X137.611 Y66.802 E0.34312
G1 X138.3 Y66.761 E0.36608
G1 X138.925 Y66.748 E0.38687
G1 X150.972 Y66.742 E0.78756
G1 X187.59 Y66.743 E2.00548
G1 X188.288 Y66.753 E2.0287
G1 X189.224 Y66.807 E2.05988
G1 X190.152 Y66.939 E2.09105
G1 X191.066 Y67.151 E2.12226
G1 X191.958 Y67.44 E2.15345
G1 X192.823 Y67.803 E2.18465
G1 X193.653 Y68.239 E2.21583
G1 X194.444 Y68.744 E2.24704
G1 X195.188 Y69.315 E2.27824
G1 X195.881 Y69.947 E2.30943
G1 X196.518 Y70.635 E2.34062
G1 X197.093 Y71.376 E2.37181
G1 X197.604 Y72.162 E2.40299
G1 X198.046 Y72.99 E2.43421
G1 X198.415 Y73.852 E2.4654
G1 X198.71 Y74.742 E2.49658
G1 X198.928 Y75.654 E2.52777
G1 X199.068 Y76.582 E2.55899
G1 X199.126 Y77.449 E2.58789
G1 X199.139 Y78.072 E2.60861
G1 X199.176 Y136.786 E4.56145
G1 X199.166 Y137.678 E4.59112
G1 X199.115 Y138.615 E4.62233
G1 X198.984 Y139.543 E4.6535
G1 X198.775 Y140.458 E4.68472
G1 X198.488 Y141.351 E4.71592
G1 X198.127 Y142.216 E4.74709
G1 X197.693 Y143.048 E4.7783
G1 X197.19 Y143.839 E4.80948
G1 X196.621 Y144.585 E4.84069
G1 X195.991 Y145.279 E4.87186
G1 X195.304 Y145.918 E4.90307
G1 X194.565 Y146.495 E4.93425
G1 X193.779 Y147.008 E4.96547
G1 X192.953 Y147.451 E4.99664
G1 X192.092 Y147.823 E5.02784
G1 X191.202 Y148.12 E5.05904
G1 X190.291 Y148.34 E5.09022
G1 X189.363 Y148.482 E5.12144
G1 X188.523 Y148.541 E5.14945
G1 X188.214 Y148.551 E5.15973
G1 X187.858 Y148.557 E5.17157
G1 X184.754 Y148.556 E5.27481
G1 X183.793 Y148.542 E5.30678
G1 X181.264 Y148.47 E5.39093
G1 X179.973 Y148.461 E5.43387
G1 X151.506 Y148.461 E6.38068
G1 X148.691 Y148.502 E6.47432
G1 X147.491 Y148.533 E6.51425
G1 X139.095 Y148.532 E6.7935
G1 X138.397 Y148.522 E6.81672
G1 X137.461 Y148.468 E6.8479
G1 X136.533 Y148.336 E6.87908
G1 X135.619 Y148.124 E6.91028
G1 X134.727 Y147.835 E6.94147
G1 X133.862 Y147.472 E6.97267
G1 X133.032 Y147.036 E7.00385
G1 X132.241 Y146.531 E7.03507
G1 X131.497 Y145.96 E7.06626
G1 X130.804 Y145.328 E7.09745
G1 X130.167 Y144.64 E7.12864
G1 X129.592 Y143.899 E7.15983
G1 X129.081 Y143.113 E7.19102
G1 X128.639 Y142.285 E7.22223
G1 X128.27 Y141.423 E7.25342
G1 X127.975 Y140.533 E7.28461
G1 X127.757 Y139.621 E7.31579
G1 X127.617 Y138.693 E7.34701
G1 X127.559 Y137.821 E7.37607
G1 X127.546 Y137.191 E7.39703
G1 X127.546 Y78.593 E9.34601
G1 X127.547 Y78.43 E9.35143
G1 X127.557 Y77.757 E9.37382
G1 X127.611 Y76.82 E9.40503
G1 X127.745 Y75.892 E9.43622
G1 X128.004 Y74.813 E9.47313
G1 X128.052 Y74.65 E9.47878
G1 X128.355 Y73.762 E9.50999
G1 X128.733 Y72.904 E9.54117
G1 X128.8 Y72.782 E9.5458
G0 F1080 X129.182 Y72.08
G0 F6000 X129.551 Y72.243
G1 F1200 X130.063 Y71.479 E9.57639
G1 X130.64 Y70.761 E9.60702
G1 X131.277 Y70.097 E9.63763
G1 X131.97 Y69.49 E9.66827
G1 X132.712 Y68.945 E9.69889
G1 X133.499 Y68.467 E9.72952
G1 X134.324 Y68.059 E9.76013
G1 X135.182 Y67.725 E9.79075
G1 X136.065 Y67.465 E9.82137
G1 X136.968 Y67.284 E9.852
G1 X138.311 Y67.161 E9.89685
G1 X138.925 Y67.148 E9.91728
G1 X150.972 Y67.142 E10.31796
G1 X187.584 Y67.143 E11.53568
G1 X188.282 Y67.153 E11.5589
G1 X189.201 Y67.206 E11.58952
G1 X190.112 Y67.339 E11.62014
G1 X191.008 Y67.55 E11.65076
G1 X191.882 Y67.838 E11.68136
G1 X192.729 Y68.201 E11.71201
G1 X193.54 Y68.636 E11.74262
G1 X194.31 Y69.14 E11.77323
G1 X195.034 Y69.709 E11.80386
G1 X195.706 Y70.339 E11.83449
G1 X196.321 Y71.024 E11.86511
G1 X196.874 Y71.76 E11.89573
G1 X197.361 Y72.541 E11.92635
G1 X197.778 Y73.362 E11.95697
G1 X198.123 Y74.216 E11.98761
G1 X198.392 Y75.096 E12.01821
G1 X198.584 Y75.997 E12.04885
G1 X198.697 Y76.91 E12.07945
G1 X198.726 Y77.46 E12.09777
G1 X198.739 Y78.072 E12.11813
G1 X198.776 Y136.786 E14.07096
G1 X198.766 Y137.674 E14.1005
G1 X198.715 Y138.593 E14.13111
G1 X198.585 Y139.504 E14.16172
G1 X198.376 Y140.401 E14.19236
G1 X198.09 Y141.276 E14.22297
G1 X197.729 Y142.123 E14.2536
G1 X197.295 Y142.935 E14.28422
G1 X196.793 Y143.707 E14.31485
G1 X196.226 Y144.432 E14.34546
G1 X195.599 Y145.106 E14.37608
G1 X194.915 Y145.722 E14.40669
G1 X194.18 Y146.277 E14.43733
G1 X193.4 Y146.765 E14.46793
G1 X192.58 Y147.185 E14.49857
G1 X191.727 Y147.531 E14.52919
G1 X190.847 Y147.803 E14.55982
G1 X189.947 Y147.996 E14.59044
G1 X189.034 Y148.111 E14.62104
G1 X188.51 Y148.141 E14.6385
G1 X188.201 Y148.151 E14.64878
G1 X187.858 Y148.157 E14.66019
G1 X184.759 Y148.156 E14.76327
G1 X183.804 Y148.142 E14.79503
G1 X181.278 Y148.07 E14.87908
G1 X179.976 Y148.061 E14.92239
G1 X151.5 Y148.061 E15.8695
G1 X148.673 Y148.102 E15.96354
G1 X147.491 Y148.133 E16.00287
G1 X139.101 Y148.132 E16.28192
G1 X138.403 Y148.122 E16.30514
G1 X137.484 Y148.069 E16.33575
G1 X136.573 Y147.936 E16.36637
G1 X135.677 Y147.725 E16.39699
G1 X134.803 Y147.437 E16.4276
G1 X133.956 Y147.074 E16.45825
G1 X133.145 Y146.639 E16.48886
G1 X132.375 Y146.135 E16.51946
G1 X131.651 Y145.566 E16.55009
G1 X130.979 Y144.936 E16.58073
G1 X130.364 Y144.251 E16.61135
G1 X129.811 Y143.515 E16.64197
G1 X129.324 Y142.734 E16.67258
G1 X128.907 Y141.913 E16.70321
G1 X128.562 Y141.059 E16.73384
G1 X128.293 Y140.179 E16.76445
G1 X128.101 Y139.278 E16.79509
G1 X127.988 Y138.365 E16.82568
G1 X127.959 Y137.81 E16.84417
G1 X127.946 Y137.191 E16.86476
G1 X127.946 Y78.593 E18.81374
G1 X127.947 Y78.436 E18.81896
G1 X127.957 Y77.763 E18.84135
G1 X128.011 Y76.843 E18.872
G1 X128.144 Y75.932 E18.90262
G1 X128.388 Y74.926 E18.93705
G1 X128.436 Y74.763 E18.9427
G1 X128.734 Y73.892 E18.97332
G1 X129.107 Y73.05 E19.00395
G1 X129.166 Y72.943 E19.00801
G0 F1080 X129.551 Y72.243
G0 F6000 X129.919 Y72.407
G1 F1200 X130.427 Y71.66 E19.03806
G1 X130.998 Y70.961 E19.06808
G1 X131.629 Y70.315 E19.09812
G1 X132.315 Y69.727 E19.12817
G1 X133.05 Y69.202 E19.15821
G1 X133.828 Y68.744 E19.18824
G1 X134.644 Y68.357 E19.21827
G1 X135.491 Y68.044 E19.24831
G1 X136.362 Y67.806 E19.27834
G1 X137.251 Y67.647 E19.30838
G1 X138.323 Y67.561 E19.34415
G1 X138.925 Y67.548 E19.36417
G1 X150.972 Y67.542 E19.76486
G1 X187.578 Y67.543 E20.98238
G1 X188.276 Y67.553 E21.0056
G1 X189.178 Y67.606 E21.03565
G1 X190.071 Y67.738 E21.06567
G1 X190.949 Y67.949 E21.09571
G1 X191.805 Y68.237 E21.12575
G1 X192.632 Y68.599 E21.15577
G1 X193.424 Y69.034 E21.18582
G1 X194.175 Y69.536 E21.21587
G1 X194.878 Y70.103 E21.24591
G1 X195.528 Y70.73 E21.27595
G1 X196.12 Y71.412 E21.30598
G1 X196.65 Y72.143 E21.33602
G1 X197.112 Y72.919 E21.36605
G1 X197.505 Y73.732 E21.39609
G1 X197.823 Y74.577 E21.42612
G1 X198.066 Y75.447 E21.45616
G1 X198.231 Y76.335 E21.4862
G1 X198.326 Y77.471 E21.52412
G1 X198.339 Y78.073 E21.54414
G1 X198.376 Y136.787 E23.49698
G1 X198.366 Y137.669 E23.52632
G1 X198.316 Y138.57 E23.55633
G1 X198.185 Y139.464 E23.58638
G1 X197.976 Y140.343 E23.61643
G1 X197.691 Y141.199 E23.64644
G1 X197.33 Y142.027 E23.67648
G1 X196.898 Y142.82 E23.70652
G1 X196.397 Y143.572 E23.73657
G1 X195.832 Y144.276 E23.7666
G1 X195.207 Y144.928 E23.79664
G1 X194.526 Y145.522 E23.82669
G1 X193.796 Y146.053 E23.85672
G1 X193.022 Y146.518 E23.88675
G1 X192.209 Y146.912 E23.9168
G1 X191.365 Y147.233 E23.94683
G1 X190.496 Y147.478 E23.97686
G1 X189.608 Y147.645 E24.00691
G1 X188.497 Y147.742 E24.044
G1 X188.188 Y147.752 E24.05429
G1 X187.858 Y147.757 E24.06526
G1 X184.765 Y147.756 E24.16814
G1 X183.815 Y147.742 E24.19974
G1 X181.291 Y147.67 E24.28372
G1 X179.979 Y147.661 E24.32736
G1 X151.494 Y147.661 E25.27477
G1 X148.723 Y147.702 E25.36695
G1 X147.491 Y147.733 E25.40794
G1 X139.107 Y147.732 E25.68679
G1 X138.409 Y147.722 E25.71001
G1 X137.507 Y147.669 E25.74006
G1 X136.614 Y147.537 E25.77008
G1 X135.736 Y147.326 E25.80012
G1 X134.88 Y147.038 E25.83016
G1 X134.053 Y146.676 E25.86018
G1 X133.261 Y146.241 E25.89024
G1 X132.51 Y145.739 E25.92028
G1 X131.807 Y145.172 E25.95032
G1 X131.157 Y144.545 E25.98036
G1 X130.565 Y143.863 E26.0104
G1 X130.035 Y143.132 E26.04043
G1 X129.573 Y142.356 E26.07047
G1 X129.18 Y141.543 E26.1005
G1 X128.862 Y140.698 E26.13053
G1 X128.619 Y139.828 E26.16057
G1 X128.454 Y138.94 E26.19061
G1 X128.359 Y137.799 E26.22869
G1 X128.346 Y137.191 E26.24892
G1 X128.346 Y78.593 E28.1979
G1 X128.347 Y78.441 E28.20295
G1 X128.357 Y77.768 E28.22534
G1 X128.411 Y76.867 E28.25536
G1 X128.543 Y75.974 E28.28539
G1 X128.771 Y75.039 E28.3174
G1 X128.819 Y74.876 E28.32305
G1 X129.113 Y74.021 E28.35312
G1 X129.48 Y73.197 E28.38312
G1 X129.531 Y73.106 E28.38659
G0 F1080 X129.919 Y72.407
G1 F3600 E22.38659
;MESH:Thermal_Camera_ESP32_MLX90640_ver_1-1_Main_Body.stl
G0 F6000 X137.881 Y78.524
G0 X139.208 Y78.524
G0 X157.82 Y98.31
;TYPE:WALL-INNER
G1 F1200 E28.38659
G1 X157.82 Y125.304 E29.28441
G1 X176.636 Y125.304 E29.91024
G1 X176.787 Y124.223 E29.94654
G1 X176.787 Y98.31 E30.80841
G1 X158.62 Y98.31 E31.41265
G0 F1080 X157.82 Y98.31
G0 F6000 X158.22 Y98.71
G1 F1200 X158.22 Y124.904 E32.28386
G1 X176.288 Y124.904 E32.88481
G1 X176.387 Y124.195 E32.90862
G1 X176.387 Y98.71 E33.75625
G1 X159.02 Y98.71 E34.33388
G0 F1080 X158.22 Y98.71
G0 F6000 X158.62 Y99.11
;TYPE:WALL-OUTER
G1 F1200 X158.62 Y124.504 E35.17849
G1 X175.94 Y124.504 E35.75455
G1 X175.987 Y124.167 E35.76587
G1 X175.987 Y99.11 E36.59927
G1 X159.42 Y99.11 E37.15029
G0 F1080 X158.62 Y99.11
G0 F6000 X158.62 Y98.61
G0 X139.594 Y78.748
;TYPE:WALL-INNER
G1 F1200 X150.977 Y78.742 E37.52889
G1 X187.176 Y78.742 E38.73287
G1 X187.176 Y136.557 E40.65581
G1 X185.198 Y136.557 E40.7216
G1 X185.198 Y136.461 E40.72479
G1 X146.82 Y136.461 E42.00125
G1 X146.82 Y136.533 E42.00364
G1 X139.546 Y136.533 E42.24558
G1 X139.546 Y79.5 E44.1425
G0 F1080 X139.546 Y78.91
G0 X139.594 Y78.91
G0 X139.594 Y78.748
G0 F6000 X139.194 Y78.51
G1 F1200 X139.194 Y78.348 E44.14789
G1 X150.977 Y78.342 E44.53979
G1 X187.576 Y78.342 E45.75708
G1 X187.576 Y136.957 E47.70663
G1 X184.798 Y136.957 E47.79902
G1 X184.798 Y136.861 E47.80221
G1 X147.22 Y136.861 E49.05206
G1 X147.22 Y136.933 E49.05446
G1 X139.146 Y136.933 E49.323
G1 X139.146 Y79.262 E51.24115
G0 F1080 X139.146 Y78.51
G0 X139.194 Y78.51
G0 F6000 X138.794 Y77.948
;TYPE:WALL-OUTER
G1 F1200 X150.977 Y77.942 E51.64635
G1 X187.976 Y77.942 E52.87695
G1 X187.976 Y137.357 E54.8531
G1 X184.398 Y137.357 E54.9721
G1 X184.398 Y137.261 E54.9753
G1 X147.62 Y137.261 E56.19854
G1 X147.62 Y137.333 E56.20093
G1 X138.746 Y137.333 E56.49608
G1 X138.746 Y78.7 E58.44622
G0 F1080 X138.746 Y78.11
G0 X138.794 Y78.11
G0 X138.794 Y77.948
G0 F6000 X139.264 Y78.418
G0 X139.984 Y79.138
;TYPE:SKIN
G1 F1200 X150.977 Y79.132 E58.81185
G1 X186.786 Y79.132 E60.00286
G1 X186.786 Y136.167 E61.89986
G1 X185.588 Y136.167 E61.9397
G1 X185.588 Y136.071 E61.94289
G1 X146.43 Y136.071 E63.24529
G1 X146.43 Y136.143 E63.24769
G1 X139.936 Y136.143 E63.46368
G1 X139.936 Y79.89 E65.33466
G0 F1080 X139.936 Y79.3
G0 X139.984 Y79.3
G0 X139.984 Y79.138
G0 F6000 X157.43 Y97.92
G1 F1200 X157.43 Y125.694 E66.25843
G1 X176.975 Y125.694 E66.9085
G1 X177.177 Y124.25 E66.95699
G1 X177.177 Y97.92 E67.83273
G1 X158.23 Y97.92 E68.46291
G0 F1080 X157.43 Y97.92
G0 F6000 X177.321 Y97.559
G1 F1200 X159.253 Y79.492 E69.31275
G1 X158.688 Y79.492 E69.33155
G1 X176.755 Y97.559 E70.18136
G1 X176.189 Y97.559 E70.20019
G1 X158.122 Y79.492 E71.05
G1 X157.556 Y79.492 E71.06883
G1 X175.624 Y97.559 E71.91867
G1 X175.058 Y97.559 E71.93749
G1 X156.991 Y79.492 E72.78731
G1 X156.425 Y79.492 E72.80614
G1 X174.492 Y97.559 E73.65595
G1 X173.927 Y97.559 E73.67474
G1 X155.859 Y79.492 E74.52458
G1 X155.294 Y79.492 E74.54338
G1 X173.361 Y97.559 E75.39319
G1 X172.795 Y97.559 E75.41202
G1 X154.728 Y79.492 E76.26183
G1 X154.162 Y79.492 E76.28066
G1 X172.229 Y97.559 E77.13047
G1 X171.664 Y97.559 E77.14927
G1 X153.597 Y79.492 E77.99908
G1 X153.031 Y79.492 E78.01791
G1 X171.098 Y97.559 E78.86772
G1 X170.532 Y97.559 E78.88655
G1 X152.465 Y79.492 E79.73637
G1 X151.899 Y79.492 E79.75519
G1 X169.967 Y97.559 E80.60503
G1 X169.401 Y97.559 E80.62386
G1 X151.334 Y79.492 E81.47367
G1 X150.976 Y79.492 E81.48558
G1 X150.769 Y79.492 E81.49246
G1 X168.835 Y97.559 E82.34226
G1 X168.27 Y97.559 E82.36105
G1 X150.203 Y79.492 E83.21087
G1 X149.638 Y79.493 E83.22966
G1 X167.704 Y97.559 E84.07943
G1 X167.138 Y97.559 E84.09825
G1 X149.072 Y79.493 E84.94802
G1 X148.507 Y79.493 E84.96681
G1 X166.573 Y97.559 E85.81658
G1 X166.007 Y97.559 E85.83541
G1 X147.942 Y79.494 E86.68513
G1 X147.376 Y79.494 E86.70396
G1 X165.441 Y97.559 E87.55368
G1 X164.876 Y97.559 E87.57247
G1 X146.811 Y79.495 E88.42217
G1 X146.245 Y79.495 E88.44099
G1 X164.31 Y97.559 E89.29069
G1 X163.744 Y97.559 E89.30952
G1 X145.68 Y79.495 E90.15919
G1 X145.115 Y79.495 E90.17798
G1 X163.179 Y97.559 E91.02766
G1 X162.613 Y97.559 E91.04648
G1 X144.549 Y79.495 E91.89616
G1 X143.984 Y79.496 E91.91495
G1 X162.047 Y97.559 E92.76458
G1 X161.481 Y97.559 E92.78341
G1 X143.418 Y79.496 E93.63303
G1 X142.853 Y79.497 E93.65183
G1 X160.916 Y97.559 E94.50143
G1 X160.35 Y97.559 E94.52026
G1 X142.288 Y79.497 E95.36984
G1 X141.722 Y79.497 E95.38866
G1 X159.784 Y97.559 E96.23824
G1 X159.219 Y97.559 E96.25703
G1 X141.157 Y79.497 E97.10662
G1 X140.591 Y79.497 E97.12544
G1 X158.653 Y97.559 E97.97502
G1 X158.087 Y97.559 E97.99385
G1 X140.295 Y79.767 E98.83073
G1 X140.295 Y80.332 E98.84952
G1 X157.522 Y97.559 E99.65983
G1 X157.068 Y97.56 E99.67493
G1 X157.068 Y97.671 E99.67862
G1 X140.295 Y80.898 E100.46757
G1 X140.295 Y81.464 E100.48639
G1 X157.068 Y98.237 E101.27534
G1 X157.068 Y98.803 E101.29417
G1 X140.295 Y82.03 E102.08312
G1 X140.295 Y82.595 E102.10191
G1 X157.068 Y99.369 E102.89089
G1 X157.068 Y99.934 E102.90968
G1 X140.295 Y83.161 E103.69863
G1 X140.295 Y83.727 E103.71745
G1 X157.068 Y100.5 E104.5064
G1 X157.068 Y101.066 E104.52523
G1 X140.295 Y84.292 E105.3142
G1 X140.295 Y84.858 E105.33303
G1 X157.068 Y101.631 E106.12198
G1 X157.068 Y102.197 E106.1408
G1 X140.295 Y85.424 E106.92975
G1 X140.295 Y85.989 E106.94855
G1 X157.068 Y102.763 E107.73752
G1 X157.068 Y103.328 E107.75631
G1 X140.295 Y86.555 E108.54526
G1 X140.295 Y87.121 E108.56409
G1 X157.068 Y103.894 E109.35304
G1 X157.068 Y104.46 E109.37186
G1 X140.295 Y87.686 E110.16084
G1 X140.295 Y88.252 E110.17966
G1 X157.068 Y105.025 E110.96861
G1 X157.068 Y105.591 E110.98744
G1 X140.295 Y88.818 E111.77639
G1 X140.295 Y89.383 E111.79518
G1 X157.068 Y106.157 E112.58416
G1 X157.068 Y106.722 E112.60295
G1 X140.295 Y89.949 E113.3919
G1 X140.295 Y90.515 E113.41072
G1 X157.068 Y107.288 E114.19967
G1 X157.068 Y107.854 E114.2185
G1 X140.295 Y91.081 E115.00745
G1 X140.295 Y91.646 E115.02624
G1 X157.068 Y108.419 E115.81519
G1 X157.068 Y108.985 E115.83402
G1 X140.295 Y92.212 E116.62297
G1 X140.295 Y92.778 E116.64179
G1 X157.068 Y109.551 E117.43074
G1 X157.068 Y110.117 E117.44957
G1 X140.295 Y93.343 E118.23854
G1 X140.295 Y93.909 E118.25737
G1 X157.068 Y110.682 E119.04632
G1 X157.068 Y111.248 E119.06514
G1 X140.295 Y94.475 E119.85409
G1 X140.295 Y95.04 E119.87289
