;FLAVOR:Marlin
;TIME:21115
;Filament used: 12.3774m
;Layer height: 0.2
;MINX:125.481
;MINY:52.824
;MINZ:0.2
;MAXX:197.113
;MAXY:195.36
;MAXZ:39.8
;Generated with Cura_SteamEngine 4.5.0
M82 ;absolute extrusion mode
M201 X500.00 Y500.00 Z100.00 E5000.00 ;Setup machine max acceleration
M203 X500.00 Y500.00 Z10.00 E50.00 ;Setup machine max feedrate
M204 P500.00 R1000.00 T500.00 ;Setup Print/Retract/Travel acceleration
M205 X8.00 Y8.00 Z0.40 E5.00 ;Setup Jerk
M220 S100 ;Reset Feedrate
M221 S100 ;Reset Flowrate

;*** Start Preheating ***
M140 S60 ; start preheating the bed
M104 S230 ﻿T0 ; start preheating hotend
G28 ; home
M190 S60 ; heat to Cura Bed setting
M109 S230 ﻿T0 ; heat to Cura Hotend
;*** End Preheating ***

G92 E0 ;Reset Extruder
G1 Z2.0 F3000 ;Move Z Axis up
G1 X10.1 Y20 Z0.28 F5000.0 ;Move to start position
G1 X10.1 Y200.0 Z0.28 F1500.0 E15 ;Draw the first line
G1 X10.4 Y200.0 Z0.28 F5000.0 ;Move to side a little
G1 X10.4 Y20 Z0.28 F1500.0 E30 ;Draw the second line
G92 E0 ;Reset Extruder
G1 Z2.0 F3000 ;Move Z Axis up
G92 E0
G92 E0
G1 F3600 E-6
;LAYER_COUNT:199
;LAYER:0
M107
G0 F6000 X126.431 Y59.55 Z0.2
;TYPE:SKIRT
G1 F1200 E0
G1 X126.833 Y58.703 E0.03118
G1 X127.306 Y57.893 E0.06238
G1 X127.846 Y57.126 E0.09358
G1 X128.45 Y56.408 E0.12479
G1 X129.112 Y55.744 E0.15597
G1 X129.829 Y55.139 E0.18717
G1 X130.594 Y54.597 E0.21836
G1 X131.403 Y54.122 E0.24956
G1 X132.249 Y53.718 E0.28074
G1 X133.127 Y53.388 E0.31194
G1 X134.03 Y53.133 E0.34315
G1 X134.951 Y52.956 E0.37434
G1 X136.349 Y52.84 E0.421
G1 X137.288 Y52.824 E0.45223
G1 X185.396 Y52.825 E2.05231
G1 X186.249 Y52.836 E2.08069
G1 X187.186 Y52.89 E2.1119
G1 X188.114 Y53.023 E2.14308
G1 X189.028 Y53.234 E2.17428
G1 X189.92 Y53.523 E2.20547
G1 X190.785 Y53.887 E2.23668
G1 X191.615 Y54.323 E2.26787
G1 X192.405 Y54.828 E2.29905
G1 X193.149 Y55.398 E2.33022
G1 X193.842 Y56.03 E2.36142
G1 X194.479 Y56.719 E2.39263
G1 X195.055 Y57.459 E2.42382
G1 X195.565 Y58.246 E2.45501
G1 X196.007 Y59.073 E2.4862
G1 X196.377 Y59.935 E2.5174
G1 X196.671 Y60.826 E2.5486
G1 X196.889 Y61.738 E2.57979
G1 X197.029 Y62.665 E2.61097
G1 X197.088 Y63.586 E2.64167
G1 X197.113 Y64.807 E2.68229
G1 X197.112 Y123.118 E4.62172
G1 X197.11 Y123.351 E4.62947
G1 X197.099 Y123.871 E4.64677
G1 X197.039 Y124.807 E4.67796
G1 X196.899 Y125.734 E4.70915
G1 X196.691 Y126.614 E4.73922
G1 X196.447 Y127.478 E4.76908
G1 X196.092 Y128.672 E4.81051
G1 X195.447 Y131.084 E4.89355
G1 X194.873 Y133.507 E4.97637
G1 X194.344 Y136.044 E5.06257
G1 X193.919 Y138.446 E5.1437
G1 X193.543 Y140.971 E5.22861
G1 X193.242 Y143.463 E5.3121
G1 X193.013 Y145.968 E5.39576
G1 X192.855 Y148.483 E5.47957
G1 X192.766 Y151.023 E5.56411
G1 X192.747 Y152.834 E5.62434
G1 X192.745 Y183.775 E6.65345
G1 X192.735 Y184.502 E6.67763
G1 X192.682 Y185.439 E6.70884
G1 X192.55 Y186.367 E6.74002
G1 X192.339 Y187.281 E6.77122
G1 X192.05 Y188.173 E6.80241
G1 X191.687 Y189.038 E6.83361
G1 X191.252 Y189.869 E6.8648
G1 X190.747 Y190.659 E6.89599
G1 X190.177 Y191.404 E6.92719
G1 X189.546 Y192.098 E6.95838
G1 X188.857 Y192.735 E6.98959
G1 X188.117 Y193.311 E7.02078
G1 X187.331 Y193.822 E7.05197
G1 X186.504 Y194.264 E7.08315
G1 X185.642 Y194.634 E7.11435
G1 X184.752 Y194.929 E7.14554
G1 X183.84 Y195.148 E7.17673
G1 X182.913 Y195.288 E7.20792
G1 X182.045 Y195.347 E7.23685
G1 X181.416 Y195.36 E7.25778
G1 X137.305 Y195.358 E8.72492
G1 X136.626 Y195.348 E8.7475
G1 X135.69 Y195.294 E8.77868
G1 X134.761 Y195.161 E8.8099
G1 X133.848 Y194.949 E8.84107
G1 X132.955 Y194.66 E8.87229
G1 X132.091 Y194.296 E8.90347
G1 X131.261 Y193.86 E8.93466
G1 X130.471 Y193.354 E8.96586
G1 X129.727 Y192.783 E8.99705
G1 X129.034 Y192.151 E9.02825
G1 X128.397 Y191.462 E9.05946
G1 X127.822 Y190.722 E9.09063
G1 X127.312 Y189.935 E9.12182
G1 X126.87 Y189.107 E9.15304
G1 X126.501 Y188.245 E9.18422
G1 X126.207 Y187.355 E9.2154
G1 X125.989 Y186.442 E9.24662
G1 X125.826 Y185.263 E9.2862
G1 X125.799 Y184.939 E9.29702
G1 X125.761 Y184.02 E9.32761
G1 X125.762 Y181.879 E9.39882
G1 X125.762 Y131.231 E11.08338
G1 X125.725 Y128.631 E11.16986
G1 X125.618 Y126.115 E11.25362
G1 X125.581 Y125.575 E11.27163
G1 X125.509 Y124.336 E11.3129
G1 X125.491 Y123.835 E11.32958
G1 X125.482 Y123.075 E11.35486
G1 X125.481 Y122.514 E11.37352
G1 X125.482 Y64.677 E13.29718
G1 X125.483 Y64.514 E13.3026
G1 X125.493 Y63.838 E13.32509
G1 X125.547 Y62.902 E13.35627
G1 X125.68 Y61.974 E13.38745
G1 X125.892 Y61.06 E13.41866
G1 X126.14 Y60.295 E13.44541
G0 F1080 X126.181 Y60.168
G0 X126.431 Y59.55
G0 F6000 X126.8 Y59.706
G1 F1200 X127.195 Y58.874 E13.47604
G1 X127.661 Y58.08 E13.50666
G1 X128.194 Y57.33 E13.53727
G1 X128.79 Y56.628 E13.56789
G1 X129.445 Y55.981 E13.59852
G1 X130.154 Y55.394 E13.62913
G1 X130.911 Y54.869 E13.65977
G1 X131.71 Y54.413 E13.69037
G1 X132.546 Y54.028 E13.72098
G1 X133.413 Y53.716 E13.75163
G1 X134.303 Y53.481 E13.78224
G1 X135.21 Y53.324 E13.81286
G1 X136.357 Y53.24 E13.85111
G1 X137.288 Y53.224 E13.88208
G1 X185.396 Y53.225 E15.48216
G1 X186.244 Y53.236 E15.51037
G1 X187.163 Y53.289 E15.54098
G1 X188.074 Y53.422 E15.5716
G1 X188.97 Y53.633 E15.60222
G1 X189.844 Y53.922 E15.63284
G1 X190.69 Y54.285 E15.66346
G1 X191.501 Y54.72 E15.69407
G1 X192.272 Y55.224 E15.7247
G1 X192.996 Y55.792 E15.75531
G1 X193.668 Y56.422 E15.78595
G1 X194.282 Y57.107 E15.81654
G1 X194.835 Y57.844 E15.84719
G1 X195.322 Y58.625 E15.8778
G1 X195.739 Y59.446 E15.90843
G1 X196.084 Y60.299 E15.93903
G1 X196.353 Y61.18 E15.96967
G1 X196.545 Y62.08 E16.00028
G1 X196.658 Y62.994 E16.03091
G1 X196.688 Y63.595 E16.05092
G1 X196.713 Y64.807 E16.09124
G1 X196.712 Y123.118 E18.03067
G1 X196.71 Y123.342 E18.03812
G1 X196.699 Y123.862 E18.05542
G1 X196.639 Y124.781 E18.08605
G1 X196.5 Y125.691 E18.11667
G1 X196.306 Y126.506 E18.14454
G1 X196.063 Y127.364 E18.1742
G1 X195.714 Y128.536 E18.21487
G1 X195.06 Y130.985 E18.29918
G1 X194.476 Y133.447 E18.38334
G1 X193.961 Y135.92 E18.46735
G1 X193.517 Y138.426 E18.552
G1 X193.148 Y140.906 E18.63539
G1 X192.846 Y143.412 E18.71935
G1 X192.614 Y145.943 E18.80388
G1 X192.456 Y148.444 E18.88723
G1 X192.365 Y151.045 E18.97379
G1 X192.347 Y152.834 E19.0333
G1 X192.345 Y183.77 E20.06223
G1 X192.335 Y184.497 E20.08642
G1 X192.282 Y185.416 E20.11703
G1 X192.15 Y186.327 E20.14765
G1 X191.939 Y187.223 E20.17827
G1 X191.652 Y188.098 E20.20889
G1 X191.289 Y188.944 E20.23951
G1 X190.855 Y189.756 E20.27014
G1 X190.351 Y190.527 E20.30077
G1 X189.783 Y191.251 E20.33138
G1 X189.154 Y191.923 E20.36199
G1 X188.469 Y192.538 E20.39261
G1 X187.733 Y193.091 E20.42323
G1 X186.952 Y193.579 E20.45386
G1 X186.132 Y193.997 E20.48447
G1 X185.278 Y194.342 E20.51511
G1 X184.398 Y194.611 E20.54571
G1 X183.497 Y194.804 E20.57636
G1 X182.584 Y194.917 E20.60696
G1 X182.034 Y194.947 E20.62528
G1 X181.416 Y194.96 E20.64584
G1 X137.311 Y194.958 E22.11278
G1 X136.632 Y194.948 E22.13536
G1 X135.713 Y194.894 E22.16598
G1 X134.802 Y194.761 E22.1966
G1 X133.906 Y194.55 E22.22722
G1 X133.032 Y194.261 E22.25784
G1 X132.186 Y193.898 E22.28846
G1 X131.374 Y193.462 E22.31911
G1 X130.604 Y192.958 E22.34972
G1 X129.88 Y192.389 E22.38035
G1 X129.209 Y191.759 E22.41096
G1 X128.594 Y191.074 E22.44158
G1 X128.042 Y190.337 E22.4722
G1 X127.555 Y189.556 E22.50282
G1 X127.138 Y188.735 E22.53344
G1 X126.794 Y187.881 E22.56406
G1 X126.525 Y187.001 E22.59467
G1 X126.334 Y186.1 E22.6253
G1 X126.225 Y185.229 E22.6545
G1 X126.198 Y184.905 E22.66531
G1 X126.161 Y184.02 E22.69477
G1 X126.162 Y181.879 E22.76598
G1 X126.162 Y131.233 E24.45048
G1 X126.125 Y128.608 E24.53779
G1 X126.019 Y126.103 E24.62118
G1 X125.98 Y125.552 E24.63956
G1 X125.908 Y124.313 E24.68083
G1 X125.891 Y123.83 E24.69691
G1 X125.882 Y123.074 E24.72206
G1 X125.881 Y122.513 E24.74071
G1 X125.882 Y64.677 E26.66435
G1 X125.883 Y64.52 E26.66957
G1 X125.893 Y63.844 E26.69206
G1 X125.947 Y62.925 E26.72267
G1 X126.08 Y62.014 E26.7533
G1 X126.292 Y61.118 E26.78392
G1 X126.525 Y60.457 E26.80723
G0 F1080 X126.731 Y59.869
G0 X126.8 Y59.706
G0 F6000 X127.168 Y59.862
G1 F1200 X127.556 Y59.047 E26.83725
G1 X128.016 Y58.269 E26.86731
G1 X128.542 Y57.535 E26.89735
G1 X129.131 Y56.85 E26.9274
G1 X129.778 Y56.22 E26.95743
G1 X130.478 Y55.65 E26.98746
G1 X131.226 Y55.144 E27.01749
G1 X132.016 Y54.706 E27.04754
G1 X132.842 Y54.34 E27.07759
G1 X133.696 Y54.049 E27.10759
G1 X134.574 Y53.833 E27.13767
G1 X135.466 Y53.697 E27.16768
G1 X136.365 Y53.64 E27.19764
G1 X137.288 Y53.624 E27.22834
G1 X185.396 Y53.625 E28.82842
G1 X186.238 Y53.636 E28.85643
G1 X187.139 Y53.689 E28.88645
G1 X188.033 Y53.822 E28.91651
G1 X188.911 Y54.032 E28.94653
G1 X189.767 Y54.32 E28.97657
G1 X190.594 Y54.683 E29.00661
G1 X191.386 Y55.117 E29.03665
G1 X192.136 Y55.619 E29.06667
G1 X192.839 Y56.186 E29.09671
G1 X193.489 Y56.813 E29.12675
G1 X194.081 Y57.495 E29.15678
G1 X194.611 Y58.227 E29.18684
G1 X195.074 Y59.002 E29.21687
G1 X195.466 Y59.816 E29.24692
G1 X195.785 Y60.661 E29.27696
G1 X196.027 Y61.531 E29.30699
G1 X196.192 Y62.419 E29.33703
G1 X196.288 Y63.604 E29.37657
G1 X196.313 Y64.807 E29.4166
G1 X196.312 Y123.118 E31.35603
G1 X196.31 Y123.334 E31.36321
G1 X196.299 Y123.854 E31.38051
G1 X196.24 Y124.755 E31.41054
G1 X196.101 Y125.647 E31.44057
G1 X195.921 Y126.398 E31.46625
G1 X195.68 Y127.25 E31.4957
G1 X195.331 Y128.424 E31.53644
G1 X194.668 Y130.903 E31.62179
G1 X194.092 Y133.337 E31.70498
G1 X193.563 Y135.873 E31.79114
G1 X193.127 Y138.333 E31.87424
G1 X192.749 Y140.87 E31.95955
G1 X192.445 Y143.398 E32.04424
G1 X192.218 Y145.879 E32.1271
G1 X192.056 Y148.441 E32.21248
G1 X191.965 Y151.027 E32.29855
G1 X191.947 Y152.834 E32.35865
G1 X191.945 Y183.764 E33.38739
G1 X191.935 Y184.491 E33.41157
G1 X191.883 Y185.393 E33.44162
G1 X191.751 Y186.286 E33.47165
G1 X191.54 Y187.165 E33.50171
G1 X191.253 Y188.021 E33.53174
G1 X190.891 Y188.848 E33.56177
G1 X190.457 Y189.64 E33.5918
G1 X189.955 Y190.391 E33.62185
G1 X189.389 Y191.094 E33.65187
G1 X188.762 Y191.745 E33.68193
G1 X188.081 Y192.337 E33.71194
G1 X187.35 Y192.867 E33.74197
G1 X186.574 Y193.33 E33.77203
G1 X185.761 Y193.723 E33.80206
G1 X184.916 Y194.043 E33.83211
G1 X184.047 Y194.286 E33.86213
G1 X183.159 Y194.451 E33.89217
G1 X182.023 Y194.547 E33.93008
G1 X181.416 Y194.56 E33.95028
G1 X137.317 Y194.558 E35.41702
G1 X136.638 Y194.548 E35.4396
G1 X135.736 Y194.495 E35.46965
G1 X134.843 Y194.362 E35.49968
G1 X133.965 Y194.151 E35.52972
G1 X133.109 Y193.862 E35.55977
G1 X132.282 Y193.5 E35.58979
G1 X131.49 Y193.065 E35.61985
G1 X130.74 Y192.563 E35.64986
G1 X130.037 Y191.995 E35.67992
G1 X129.387 Y191.368 E35.70996
G1 X128.795 Y190.686 E35.74
G1 X128.266 Y189.954 E35.77004
G1 X127.804 Y189.179 E35.80005
G1 X127.412 Y188.365 E35.8301
G1 X127.093 Y187.52 E35.86014
G1 X126.851 Y186.65 E35.89017
G1 X126.686 Y185.762 E35.92021
G1 X126.623 Y185.196 E35.93915
G1 X126.596 Y184.872 E35.94997
G1 X126.561 Y184.02 E35.97833
G1 X126.562 Y181.879 E36.04954
G1 X126.562 Y131.227 E37.73423
G1 X126.525 Y128.621 E37.82092
G1 X126.416 Y126.059 E37.90621
G1 X126.379 Y125.529 E37.92388
G1 X126.307 Y124.29 E37.96516
G1 X126.291 Y123.825 E37.98063
G1 X126.282 Y123.073 E38.00564
G1 X126.281 Y122.512 E38.0243
G1 X126.282 Y64.677 E39.9479
G1 X126.283 Y64.526 E39.95293
G1 X126.293 Y63.85 E39.97541
G1 X126.346 Y62.949 E40.00543
G1 X126.479 Y62.055 E40.03549
G1 X126.691 Y61.177 E40.06553
G1 X126.891 Y60.612 E40.08547
G0 F1080 X127.099 Y60.025
G0 X127.168 Y59.862
G1 F3600 E34.08547
;MESH:Thermal_Camera_ESP32_MLX90640_ver_1-2_STL.stl
G0 F6000 X135.816 Y64.606
G0 X137.144 Y64.606
G0 X155.955 Y84.392
;TYPE:WALL-INNER
G1 F1200 E40.08547
G1 X155.756 Y84.392 E40.09209
G1 X155.756 Y84.591 E40.09637
G1 X155.755 Y111.387 E40.98761
G1 X174.576 Y111.388 E41.6136
G1 X174.722 Y110.302 E41.65004
G1 X174.723 Y84.393 E42.51178
G1 X156.755 Y84.392 E43.1094
G0 F1080 X155.955 Y84.392
G0 F6000 X156.156 Y84.792
G1 F1200 X156.156 Y84.991 E43.11602
G1 X156.155 Y110.987 E43.98065
G1 X174.226 Y110.988 E44.58169
G1 X174.322 Y110.275 E44.60562
G1 X174.323 Y84.793 E45.45315
G1 X156.355 Y84.792 E46.05077
G1 X156.156 Y84.792 E46.05505
G0 F6000 X156.556 Y85.192
;TYPE:WALL-OUTER
G1 F1200 X156.555 Y110.587 E46.8997
G1 X173.876 Y110.588 E47.47579
G1 X173.922 Y110.248 E47.48721
G1 X173.923 Y85.193 E48.32054
G1 X157.356 Y85.192 E48.87156
G0 F1080 X156.556 Y85.192
G0 F6000 X156.557 Y84.693
G0 X137.53 Y64.824
;TYPE:WALL-INNER
G1 F1200 X137.642 Y64.824 E48.87528
G1 X185.112 Y64.825 E50.45414
G1 X185.112 Y122.501 E52.37245
G1 X185.112 Y122.64 E52.37708
G1 X185.016 Y122.64 E52.38027
G1 X185.016 Y122.712 E52.38145
G1 X184.877 Y122.712 E52.38608
G1 X137.491 Y122.711 E53.96214
G1 X137.492 Y122.615 E53.96533
G1 X137.481 Y122.615 E53.9657
G1 X137.482 Y65.104 E55.87852
G1 X137.482 Y64.992 E55.88225
G1 X137.53 Y64.992 E55.88385
G1 X137.53 Y64.824 E55.88898
G0 F6000 X137.13 Y64.592
G1 F1200 X137.13 Y64.424 E55.89456
G1 X137.242 Y64.424 E55.89829
G1 X185.512 Y64.425 E57.50376
G1 X185.512 Y122.901 E59.44868
G1 X185.512 Y123.04 E59.4533
G1 X185.416 Y123.04 E59.45649
G1 X185.416 Y123.112 E59.45767
G1 X185.277 Y123.112 E59.4623
G1 X137.087 Y123.111 E61.0651
G1 X137.088 Y123.015 E61.0683
G1 X137.081 Y123.015 E61.06853
G1 X137.082 Y64.704 E63.00796
G1 X137.082 Y64.592 E63.01169
G1 X137.13 Y64.592 E63.01283
G0 F6000 X136.73 Y64.024
;TYPE:WALL-OUTER
G1 F1200 X185.912 Y64.025 E64.64863
G1 X185.912 Y123.44 E66.62478
G1 X185.816 Y123.44 E66.62797
G1 X185.816 Y123.512 E66.63037
G1 X136.683 Y123.511 E68.26454
G1 X136.684 Y123.415 E68.26773
G1 X136.681 Y123.415 E68.26783
G1 X136.682 Y64.776 E70.21817
G0 F1080 X136.682 Y64.192
G0 X136.73 Y64.192
G0 X136.73 Y64.024
G0 F6000 X137.2 Y64.494
G0 X137.92 Y65.214
;TYPE:SKIN
G1 F1200 X184.722 Y65.215 E71.77481
G1 X184.722 Y122.25 E73.6718
G1 X184.626 Y122.25 E73.675
G1 X184.626 Y122.322 E73.67739
G1 X137.885 Y122.321 E75.232
G1 X137.886 Y122.225 E75.2352
G1 X137.871 Y122.225 E75.23569
G1 X137.872 Y65.966 E77.10688
G0 F1080 X137.872 Y65.382
G0 X137.92 Y65.382
G0 X137.92 Y65.214
G0 F6000 X155.366 Y84.002
G1 F1200 X155.365 Y111.777 E78.03068
G1 X174.917 Y111.778 E78.68098
G1 X175.112 Y110.328 E78.72964
G1 X175.113 Y84.003 E79.60521
G1 X156.166 Y84.002 E80.23539
G0 F1080 X155.366 Y84.002
G1 F3600 E74.23539
G0 F6000 X184.361 Y65.574
G1 F1200 E80.23539
G1 X183.803 Y65.574 E80.25395
G1 X184.361 Y66.133 E80.28022
G0 F6000 X183.803 Y65.574
G1 F1200 X183.237 Y65.574 E80.29905
G1 X184.361 Y66.699 E80.35194
G1 X184.361 Y67.264 E80.37073
G1 X182.671 Y65.574 E80.45022
G1 X182.106 Y65.574 E80.46902
G1 X184.361 Y67.83 E80.57511
G1 X184.361 Y68.396 E80.59393
G1 X181.54 Y65.574 E80.72665
G1 X180.974 Y65.574 E80.74547
G1 X184.361 Y68.962 E80.90481
G1 X184.361 Y69.527 E80.9236
G1 X180.409 Y65.574 E81.10952
G1 X179.843 Y65.574 E81.12834
G1 X184.361 Y70.093 E81.34088
G1 X184.361 Y70.659 E81.3597
G1 X179.277 Y65.574 E81.59886
G1 X178.712 Y65.574 E81.61765
G1 X184.361 Y71.224 E81.88339
G1 X184.361 Y71.79 E81.90222
G1 X178.146 Y65.574 E82.19457
G1 X177.58 Y65.574 E82.2134
G1 X184.361 Y72.356 E82.53238
G1 X184.361 Y72.921 E82.55117
G1 X177.014 Y65.574 E82.89675
G1 X176.449 Y65.574 E82.91554
G1 X184.361 Y73.487 E83.28772
G1 X184.361 Y74.053 E83.30655
G1 X175.883 Y65.574 E83.70535
G1 X175.317 Y65.574 E83.72418
G1 X184.361 Y74.618 E84.14958
G1 X184.361 Y75.184 E84.1684
G1 X174.752 Y65.574 E84.62041
G1 X174.186 Y65.574 E84.63923
G1 X184.361 Y75.75 E85.11786
G1 X184.361 Y76.315 E85.13665
G1 X173.62 Y65.574 E85.64187
G1 X173.055 Y65.574 E85.66066
G1 X184.361 Y76.881 E86.19249
G1 X184.361 Y77.447 E86.21131
G1 X172.489 Y65.574 E86.76976
G1 X171.923 Y65.574 E86.78858
G1 X184.361 Y78.012 E87.37363
G1 X184.361 Y78.578 E87.39245
G1 X171.358 Y65.574 E88.0041
G1 X170.792 Y65.574 E88.02292
G1 X184.361 Y79.144 E88.66119
G1 X184.361 Y79.71 E88.68002
G1 X170.226 Y65.574 E89.34491
G1 X169.661 Y65.574 E89.3637
G1 X184.361 Y80.275 E90.05516
G1 X184.361 Y80.841 E90.07399
G1 X169.095 Y65.574 E90.79208
G1 X168.529 Y65.574 E90.8109
G1 X184.361 Y81.407 E91.55562
G1 X184.361 Y81.972 E91.57441
G1 X167.964 Y65.574 E92.3457
G1 X167.398 Y65.574 E92.36452
G1 X184.361 Y82.538 E93.16243
G1 X184.361 Y83.104 E93.18126
G1 X166.832 Y65.574 E94.00579
